X:43
T:Paddy Taylor's
D:"Lia Luachra" by Lia Luachra
Z:Transcribed by Lionel Gueganton
R:reel
L:1/8
M:4/4
K:Dmix
"A Part"
| F2 FG AG FA    | GA A/B/c dc Bc | F/F/F FG AG FA | GB AG F/E/D E=F
| F/F/F FG AG FA | GA A/B/c dc Bc | F/F/F FG AG FA | GB AG FD D/D/D
"B Part"
| [dd]d de fe df | f/e/d ef gf ef | d/d/d de fe dg | f/e/d AG F/E/D FA
| Dd de fe df    | f/e/d ef ge fg | af g/f/e fe dg | f/e/d AG F/E/D E=F
"C Part"
| F2 FG A/A/A dA    | G/G/G dG G/G/G dG | F/F/F FG A/A/A dA | GB AG F/E/D E=F
| F/F/F FG A/A/A dA | G/G/G dG G/G/G dG | F/F/F FG A/A/A dA | GB AG F/E/D E=F

